mediabuilder/img/social/dzen.svg

<svg width="37" height="36" viewBox="0 0 37 36" fill="none" xmlns="http://www.w3.org/2000/svg">
<path d="M21.1143 20.8641C18.7807 23.2719 18.611 26.2737 18.4095 32.8501C24.5404 32.8501 28.7727 32.8289 30.9577 30.7075C33.0792 28.5224 33.1004 24.0886 33.1004 18.1593C26.524 18.3714 23.5221 18.5305 21.1143 20.8641ZM3.40039 18.1593C3.40039 24.0886 3.4216 28.5224 5.54303 30.7075C7.7281 32.8289 11.9604 32.8501 18.0913 32.8501C17.8791 26.2737 17.72 23.2719 15.3865 20.8641C12.9786 18.5305 9.97682 18.3608 3.40039 18.1593ZM18.0913 3.15015C11.971 3.15015 7.7281 3.17136 5.54303 5.29279C3.4216 7.47786 3.40039 11.9116 3.40039 17.841C9.97682 17.6289 12.9786 17.4698 15.3865 15.1362C17.72 12.7284 17.8897 9.72657 18.0913 3.15015ZM21.1143 15.1362C18.7807 12.7284 18.611 9.72657 18.4095 3.15015C24.5404 3.15015 28.7727 3.17136 30.9577 5.29279C33.0792 7.47786 33.1004 11.9116 33.1004 17.841C26.524 17.6289 23.5221 17.4698 21.1143 15.1362Z" fill="#2C3036"/>
<path d="M33.1004 18.1593V17.841C26.524 17.6289 23.5221 17.4698 21.1143 15.1362C18.7807 12.7284 18.611 9.72657 18.4095 3.15015H18.0913C17.8791 9.72657 17.72 12.7284 15.3865 15.1362C12.9786 17.4698 9.97682 17.6395 3.40039 17.841V18.1593C9.97682 18.3714 12.9786 18.5305 15.3865 20.8641C17.72 23.2719 17.8897 26.2737 18.0913 32.8501H18.4095C18.6216 26.2737 18.7807 23.2719 21.1143 20.8641C23.5221 18.5305 26.524 18.3608 33.1004 18.1593Z" fill="white"/>
</svg>

<svg width="37" height="36" fill="none" xmlns="http://www.w3.org/2000/svg"><path d="M21.114 20.864c-2.333 2.408-2.503 5.41-2.704 11.986 6.13 0 10.363-.021 12.548-2.143C33.079 28.523 33.1 24.09 33.1 18.16c-6.576.212-9.578.372-11.986 2.705zM3.4 18.16c0 5.93.022 10.363 2.143 12.549 2.185 2.12 6.417 2.142 12.548 2.142-.212-6.576-.371-9.578-2.705-11.986C12.98 18.53 9.976 18.361 3.4 18.16zM18.091 3.15c-6.12 0-10.363.021-12.548 2.143C3.422 7.478 3.4 11.912 3.4 17.84c6.577-.212 9.579-.371 11.986-2.705 2.334-2.408 2.504-5.41 2.705-11.986zm3.023 11.986c-2.333-2.408-2.503-5.41-2.704-11.986 6.13 0 10.363.021 12.548 2.143C33.079 7.478 33.1 11.912 33.1 17.84c-6.576-.212-9.578-.371-11.986-2.705z" fill="#2C3036"/><path d="M33.1 18.16v-.319c-6.576-.212-9.578-.371-11.986-2.705-2.333-2.408-2.503-5.41-2.704-11.986h-.319c-.212 6.577-.371 9.578-2.705 11.986C12.98 17.47 9.976 17.64 3.4 17.841v.318c6.577.212 9.579.372 11.986 2.705 2.334 2.408 2.504 5.41 2.705 11.986h.319c.212-6.576.37-9.578 2.704-11.986 2.408-2.334 5.41-2.503 11.986-2.705z" fill="#fff"/></svg>
